X:458
T:Lees of Luncarty, The
R:Strathspey
B:The Athole Collection
M:C
L:1/8
K:G
B|D<G B>G c<A B>G|A/A/A BG c>A=F>A|D<G B>G c<A B>G|
A/A/A d>c B<GG:|
f|g<d d>e =f>ga>g|=f<d c>_B A<F F>^f|g<d d>e g>ab>a|
g<d d>f g/f/g/a/ gb|g<d d>e =f>ga>g|=f>dc>_B A<F Fe/f/|
g>e=f>d e>cd>B|A>g f<a g<GG||

